coreui/free/cil-garage.svg

<svg xmlns="http://www.w3.org/2000/svg" viewBox="0 0 512 512">
  <path fill="var(--ci-primary-color, currentColor)" d="M448,255.454h-.511L407.067,164.5A48.044,48.044,0,0,0,363.2,136H148.8a48.043,48.043,0,0,0-43.863,28.5L64.511,255.454H64a32.036,32.036,0,0,0-32,32v112a32.036,32.036,0,0,0,32,32V472a24.028,24.028,0,0,0,24,24h56a24.028,24.028,0,0,0,24-24V431.454H344V472a24.028,24.028,0,0,0,24,24h56a24.028,24.028,0,0,0,24-24V431.454a32.036,32.036,0,0,0,32-32v-112A32.036,32.036,0,0,0,448,255.454ZM134.175,177.5A16.013,16.013,0,0,1,148.8,168H363.2a16.014,16.014,0,0,1,14.621,9.5l34.646,77.953H99.529ZM136,464H96V431.454h40Zm280,0H376V431.454h40Zm32-64.546H64v-112H448Z" class="ci-primary"/>
  <rect width="80" height="32" x="96" y="328" fill="var(--ci-primary-color, currentColor)" class="ci-primary"/>
  <rect width="80" height="32" x="336" y="328" fill="var(--ci-primary-color, currentColor)" class="ci-primary"/>
  <polygon fill="var(--ci-primary-color, currentColor)" points="256 14.758 16 111.121 16 145.604 256 49.242 496 145.604 496 111.121 256 14.758" class="ci-primary"/>
</svg>

<svg viewBox="0 0 512 512" xmlns="http://www.w3.org/2000/svg"><g><path d="M448 255.454h-.52l-40.43-90.96 0-.001c-7.72-17.33-24.91-28.5-43.87-28.5h-214.4v0c-18.97.01-36.15 11.17-43.87 28.5l-40.43 90.95h-.52v0c-17.67.01-31.99 14.33-32 32v112 -.001c.01 17.66 14.33 31.98 32 32v40.54 -.001c.01 13.24 10.75 23.98 24 24h56v0c13.24-.02 23.98-10.76 24-24v-40.55h176v40.54 -.001c.01 13.24 10.75 23.98 24 24h56 0c13.24-.02 23.98-10.76 24-24v-40.55 0c17.66-.02 31.98-14.34 32-32v-112 0c-.02-17.67-14.34-31.99-32-32Zm-313.83-77.96v0c2.57-5.78 8.3-9.5 14.62-9.5h214.4 -.001c6.32 0 12.04 3.72 14.62 9.5l34.64 77.953H99.51Zm1.82 286.5h-40v-32.55h40Zm280 0h-40v-32.55h40Zm32-64.55h-384v-112h384Z"/><path d="M96 328h80v32H96Z"/><path d="M336 328h80v32h-80Z"/><path d="M256 14.75L16 111.113l0 34.48 240-96.37 240 96.36 0-34.49L256 14.73Z"/></g></svg>
